X: 382
T: Musselburgh
C: Bert Murray
R: strathspey
B: Bert Murray's "Bon Accord Collection" 1999 p.38
%
Z: 2011 John Chambers <jc:trillian.mit.edu>
M: C
L: 1/8
K: C
uG |\
c>GE>C (F<A) (GA/B/) | c>GE>C B,<D D>G | c>GE>C F<A G>c | (3ABc (3Bcd (3edc (3BAG |
c>GE>C (F<A) (GA/B/) | C>eg>c B<d d>e | (3cde (3def g>ec>G | A>cB>g (e<c) c ||
ue |\
g>ec>e G>cE>G | c>eg>e f<d d>e | f>dB>d G>dB>d | (3bag (3fga g<e e>f |
g>ec>e G>cE>G | c>eg>c B<d d>e | (3cde (3def g>ec>G | A>cB>g (e<c) c |]

%%sep 2 1 500

